resources/icons/typengo.svg

<?xml version="1.0" encoding="UTF-8" standalone="no"?>
<!-- Created with Inkscape (http://www.inkscape.org/) -->

<svg
   xmlns:dc="http://purl.org/dc/elements/1.1/"
   xmlns:cc="http://creativecommons.org/ns#"
   xmlns:rdf="http://www.w3.org/1999/02/22-rdf-syntax-ns#"
   xmlns:svg="http://www.w3.org/2000/svg"
   xmlns="http://www.w3.org/2000/svg"
   xmlns:sodipodi="http://sodipodi.sourceforge.net/DTD/sodipodi-0.dtd"
   xmlns:inkscape="http://www.inkscape.org/namespaces/inkscape"
   width="16"
   height="16"
   id="svg2985"
   version="1.1"
   inkscape:version="0.91 r13725"
   sodipodi:docname="typengo.svg"
   inkscape:export-filename="/home/rvishnyakov/Projects/codeflections/idea/plugins/typengo/resources/icons/typengo.png"
   inkscape:export-xdpi="22.5"
   inkscape:export-ydpi="22.5">
  <defs
     id="defs2987" />
  <sodipodi:namedview
     id="base"
     pagecolor="#ffffff"
     bordercolor="#666666"
     borderopacity="1.0"
     inkscape:pageopacity="0.0"
     inkscape:pageshadow="2"
     inkscape:zoom="16"
     inkscape:cx="13.272727"
     inkscape:cy="12.76997"
     inkscape:current-layer="layer1"
     showgrid="true"
     inkscape:document-units="px"
     inkscape:grid-bbox="true"
     inkscape:window-width="1280"
     inkscape:window-height="666"
     inkscape:window-x="-8"
     inkscape:window-y="-8"
     inkscape:window-maximized="1" />
  <metadata
     id="metadata2990">
    <rdf:RDF>
      <cc:Work
         rdf:about="">
        <dc:format>image/svg+xml</dc:format>
        <dc:type
           rdf:resource="http://purl.org/dc/dcmitype/StillImage" />
        <dc:title />
      </cc:Work>
    </rdf:RDF>
  </metadata>
  <g
     id="layer1"
     inkscape:label="Layer 1"
     inkscape:groupmode="layer"
     transform="translate(0,-48)">
    <text
       xml:space="preserve"
       style="font-style:normal;font-weight:normal;font-size:40px;line-height:125%;font-family:sans-serif;letter-spacing:0px;word-spacing:0px;fill:#000000;fill-opacity:1;stroke:none;stroke-width:1px;stroke-linecap:butt;stroke-linejoin:miter;stroke-opacity:1"
       x="4.75"
       y="56.5"
       id="text4690"
       sodipodi:linespacing="125%"><tspan
         sodipodi:role="line"
         id="tspan4692"
         x="4.75"
         y="56.5" /></text>
    <path
       style="opacity:1;fill:#2ec0e1;fill-opacity:1;stroke:none;stroke-width:0.84050262;stroke-miterlimit:4;stroke-dasharray:2.52150786, 2.52150786;stroke-dashoffset:0;stroke-opacity:1"
       d="M 3.2871094 1.0625 C 2.1583991 1.0625 1.25 2.0490975 1.25 3.2734375 L 1.25 12.664062 C 1.25 13.888405 2.1583991 14.875 3.2871094 14.875 L 12.837891 14.875 C 13.966601 14.875 14.875 13.888405 14.875 12.664062 L 14.875 3.2734375 C 14.875 2.0490975 13.966601 1.0625 12.837891 1.0625 L 3.2871094 1.0625 z M 3.75 2.4375 L 12.5625 2.4375 C 13.1165 2.4375 13.5625 2.8835 13.5625 3.4375 L 13.5625 3.4628906 C 13.562607 3.4704562 13.566467 3.4767692 13.566406 3.484375 L 13.5625 3.9746094 L 13.5625 5.25 C 13.5625 5.2686442 13.553732 5.2843477 13.552734 5.3027344 L 13.496094 12.296875 C 13.491661 12.850857 13.042264 13.293497 12.488281 13.289062 L 10.675781 13.273438 C 10.121799 13.269004 9.6791607 12.819607 9.6835938 12.265625 L 9.7324219 6.25 L 3.75 6.25 C 3.196 6.25 2.75 5.804 2.75 5.25 L 2.75 3.4375 C 2.75 2.8835 3.196 2.4375 3.75 2.4375 z M 4 7.6875 L 7.5 7.6875 C 8.054 7.6875 8.5 8.1335 8.5 8.6875 L 8.5 12.125 C 8.5 12.679 8.054 13.125 7.5 13.125 L 4 13.125 C 3.446 13.125 3 12.679 3 12.125 L 3 8.6875 C 3 8.1335 3.446 7.6875 4 7.6875 z "
       transform="translate(0,48)"
       id="rect4145" />
  </g>
</svg>

<svg xmlns="http://www.w3.org/2000/svg" width="16" height="16">
    <text style="line-height:125%" x="4.75" y="56.5" font-weight="400" font-size="40" font-family="sans-serif"
          letter-spacing="0" word-spacing="0" transform="translate(0 -48)"/>
    <path d="M3.287 1.063c-1.129 0-2.037.986-2.037 2.21v9.391c0 1.224.908 2.211 2.037 2.211h9.55c1.13 0 2.038-.987 2.038-2.21V3.272c0-1.224-.908-2.21-2.037-2.21h-9.55zm.463 1.375h8.813c.553 0 1 .446 1 1v.025l.003.021-.004.49V5.25c0 .019-.008.034-.01.053l-.056 6.994a.998.998 0 01-1.008.992l-1.812-.016a.998.998 0 01-.992-1.007l.048-6.016H3.75c-.554 0-1-.446-1-1V3.437c0-.553.446-1 1-1zM4 7.688h3.5c.554 0 1 .446 1 1v3.437c0 .554-.446 1-1 1H4c-.554 0-1-.446-1-1V8.687c0-.553.446-1 1-1z"
          fill="#2ec0e1"/>
</svg>
